svg/24/logo-qt.svg

<svg width="24" height="24" viewBox="0 0 24 24" fill="currentColor" xmlns="http://www.w3.org/2000/svg"><path d="M7.82553 9.13856C8.12356 8.59704 8.66543 8.3298 9.45115 8.3298C10.2369 8.3298 10.7787 8.59704 11.07 9.13856C11.3613 9.68007 11.5035 10.5451 11.5035 11.7406C11.5035 12.9292 11.3613 13.7801 11.0836 14.2794C10.7991 14.7788 10.2572 15.0319 9.45115 15.0319C8.64511 15.0319 8.09647 14.7717 7.81198 14.2654C7.5275 13.759 7.38525 12.9081 7.38525 11.7266C7.38525 10.5381 7.53427 9.68007 7.82553 9.13856Z"/><path fill-rule="evenodd" clip-rule="evenodd" d="M22 4.5V16.675L19.2256 19.5H2V7.32509L4.77437 4.5H22ZM15.1288 15.5852C15.3947 15.9184 15.8855 16.085 16.6012 16.085C16.9011 16.085 17.3306 16.0294 17.8895 15.9184L17.8282 14.7938L16.7921 14.8355C16.4853 14.8355 16.2876 14.7522 16.2127 14.5787C16.1377 14.4121 16.0968 14.065 16.0968 13.5375V10.6985H17.8419V9.49771H16.0968V7.62357H14.7267V9.49771H13.7587V10.6916H14.7267V13.6902C14.7267 14.6203 14.863 15.252 15.1288 15.5852ZM11.3524 18.0493L12.6544 17.4315L11.5978 15.6893C12.0886 15.3561 12.4362 14.8702 12.6544 14.2317C12.8657 13.5999 12.9748 12.767 12.9748 11.7328C12.9748 10.1641 12.7157 9.00488 12.1909 8.25522C11.6728 7.49863 10.7594 7.12373 9.4574 7.12373C8.15542 7.12373 7.24199 7.5055 6.71711 8.26216C6.19223 9.01876 5.92638 10.1779 5.92638 11.7397C5.92638 13.2946 6.18541 14.4399 6.70348 15.1617C7.22154 15.8837 8.14179 16.2446 9.4574 16.2446C9.81186 16.2446 10.0641 16.2168 10.2277 16.1682L11.3524 18.0493Z"/></svg>

<svg xmlns="http://www.w3.org/2000/svg" width="24" height="24" fill="currentColor" viewBox="0 0 24 24">
  <path d="M7.826 9.139c.298-.542.84-.81 1.625-.81.786 0 1.328.268 1.619.81.291.541.434 1.406.434 2.602 0 1.188-.143 2.04-.42 2.538-.285.5-.827.753-1.633.753s-1.355-.26-1.639-.767c-.285-.506-.427-1.357-.427-2.538 0-1.189.15-2.047.44-2.588Z"/>
  <path fill-rule="evenodd" d="M22 4.5v12.175L19.226 19.5H2V7.325L4.774 4.5H22Zm-6.871 11.085c.266.333.757.5 1.472.5.3 0 .73-.056 1.289-.167l-.062-1.124-1.036.041c-.307 0-.504-.083-.58-.256-.074-.167-.115-.514-.115-1.042v-2.839h1.745v-1.2h-1.745V7.624h-1.37v1.874h-.968v1.194h.968v2.998c0 .93.136 1.562.402 1.895Zm-3.777 2.464 1.302-.617-1.056-1.743c.49-.333.838-.819 1.056-1.457.212-.632.32-1.465.32-2.5 0-1.568-.258-2.727-.783-3.477-.518-.756-1.432-1.131-2.734-1.131s-2.215.381-2.74 1.138c-.525.757-.79 1.916-.79 3.478 0 1.555.258 2.7.776 3.422.519.722 1.439 1.083 2.754 1.083.355 0 .607-.028.77-.077l1.125 1.881Z" clip-rule="evenodd"/>
</svg>
